;HAS_BEEN_WOODGRAINED
; generated by PrusaSlicer 2.5.0+win64 on 2022-11-30 at 16:35:23 UTC


;
;
; 

; external perimeters extrusion width = 0.65mm
; perimeters extrusion width = 0.65mm
; infill extrusion width = 0.65mm
; solid infill extrusion width = 0.65mm
; top infill extrusion width = 0.60mm
; first layer extrusion width = 0.65mm

M73 P0 R24
M73 Q0 S24
M201 X1000 Y1000 Z200 E5000 ; sets maximum accelerations, mm/sec^2
M203 X200 Y200 Z12 E120 ; sets maximum feedrates, mm / sec
M204 P1250 R1250 T1250 ; sets acceleration (P, T) and retract acceleration (R), mm/sec^2
M205 X8.00 Y8.00 Z0.40 E4.50 ; sets the jerk limits, mm/sec
M205 S0 T0 ; sets the minimum extruding and travel feed rate, mm/sec
M107
;TYPE:Custom
M862.3 P "MK3S" ; printer model check
M862.1 P0.6 ; nozzle diameter check
M115 U3.11.0 ; tell printer latest fw version
G90 ; use absolute coordinates
M83 ; extruder relative mode
M104 S215 ; set extruder temp
M140 S60 ; set bed temp
M190 S60 ; wait for bed temp
M109 S215 ; wait for extruder temp
G28 W ; home all without mesh bed level
G80 ; mesh bed leveling

G1 Z0.2 F720
G1 Y-3 F1000 ; go outside print area
G92 E0
G1 X60 E9 F1000 ; intro line
G1 X100 E12.5 F1000 ; intro line

G92 E0
M221 S95
G21 ; set units to millimeters
G90 ; use absolute coordinates
M83 ; use relative distances for extrusion
M900 K0.04 ; Filament gcode LA 1.5
M900 K18 ; Filament gcode LA 1.0
M107
;LAYER_CHANGE
;Z:0.2
;HEIGHT:0.2
;BEFORE_LAYER_CHANGE
G92 E0.0
;0.2


G1 E-.8 F2100
G1 Z.4 F720
;AFTER_LAYER_CHANGE
;0.2
G1 X110.285 Y91.125 F10800
G1 Z.2 F720
G1 E.8 F1500
M204 S800
;TYPE:Skirt/Brim
;WIDTH:0.65
G1 F1200
G1 X111.344 Y90.163 E.0722
G1 X112.5 Y89.893 E.05992
G1 X137.5 Y89.893 E1.26197
G1 X138.875 Y90.285 E.0722
G1 X139.837 Y91.344 E.0722
G1 X140.107 Y92.5 E.05992
G1 X140.107 Y117.5 E1.26197
G1 X139.715 Y118.875 E.0722
G1 X138.656 Y119.837 E.0722
G1 X137.5 Y120.107 E.05992
G1 X112.5 Y120.107 E1.26197
G1 X111.125 Y119.715 E.0722
G1 X110.163 Y118.656 E.0722
G1 X109.893 Y117.5 E.05992
G1 X109.893 Y92.5 E1.26197
G1 X110.261 Y91.211 E.06766
M204 S1000
; printing object Shape-Box id:0 copy 0
;WIPE_START
G1 F8640
G1 X111.344 Y90.163 E-.34808
G1 X112.5 Y89.893 E-.27408
G1 X113.097 Y89.893 E-.13784
;WIPE_END
G1 E-.04 F2100
G1 Z.6 F720
G1 X136.368 Y116.368 F10800
G1 Z.2 F720
G1 E.8 F1500
M204 S800
;TYPE:Perimeter
;WIDTH:0.649999
G1 F1200
G1 X113.632 Y116.368 E1.14768
G1 X113.632 Y93.632 E1.14768
M73 P1 R24
M73 Q1 S24
G1 X136.368 Y93.632 E1.14768
G1 X136.368 Y116.278 E1.14314
M204 S1000
G1 X136.975 Y116.975 F10800
M204 S800
;TYPE:External perimeter
G1 F1200
G1 X113.025 Y116.975 E1.20897
G1 X113.025 Y93.025 E1.20897
G1 X136.975 Y93.025 E1.20897
G1 X136.975 Y116.885 E1.20442
M204 S1000
G1 X136.395 Y116.82 F10800
;WIPE_START
G1 F8640
G1 X133.684 Y116.897 E-.76
;WIPE_END
G1 E-.04 F2100
G1 Z.6 F720
G1 X134.952 Y93.814 F10800
G1 Z.2 F720
G1 E.8 F1500
M204 S800
;TYPE:Solid infill
;WIDTH:0.652998
G1 F1200
G1 X135.913 Y94.775 E.0689
G1 X135.913 Y95.637 E.04377
G1 X134.363 Y94.087 E.11119
G1 X133.5 Y94.087 E.04377
G1 X135.913 Y96.5 E.17309
G1 X135.913 Y97.363 E.04377
G1 X132.637 Y94.087 E.23499
G1 X131.774 Y94.087 E.04377
G1 X135.913 Y98.226 E.29688
G1 X135.913 Y99.088 E.04377
G1 X130.912 Y94.087 E.35878
G1 X130.049 Y94.087 E.04377
G1 X135.913 Y99.951 E.42068
G1 X135.913 Y100.814 E.04377
G1 X129.186 Y94.087 E.48257
G1 X128.323 Y94.087 E.04377
G1 X135.913 Y101.677 E.54447
G1 X135.913 Y102.54 E.04377
G1 X127.46 Y94.087 E.60636
G1 X126.598 Y94.087 E.04377
G1 X135.913 Y103.402 E.66826
G1 X135.913 Y104.265 E.04377
G1 X125.735 Y94.087 E.73016
G1 X124.872 Y94.087 E.04377
G1 X135.913 Y105.128 E.79205
G1 X135.913 Y105.991 E.04377
M73 P2 R24
M73 Q2 S24
G1 X124.009 Y94.087 E.85395
G1 X123.147 Y94.087 E.04377
G1 X135.913 Y106.853 E.91585
G1 X135.913 Y107.716 E.04377
G1 X122.284 Y94.087 E.97774
G1 X121.421 Y94.087 E.04377
G1 X135.913 Y108.579 E1.03964
G1 X135.913 Y109.442 E.04377
G1 X120.558 Y94.087 E1.10153
G1 X119.695 Y94.087 E.04377
G1 X135.913 Y110.305 E1.16343
G1 X135.913 Y111.167 E.04377
M73 P2 R23
G1 X118.833 Y94.087 E1.22533
G1 X117.97 Y94.087 E.04377
G1 X135.913 Y112.03 E1.28722
G1 X135.913 Y112.893 E.04377
M73 Q2 S23
G1 X117.107 Y94.087 E1.34912
G1 X116.244 Y94.087 E.04377
G1 X135.913 Y113.756 E1.41102
G1 X135.913 Y114.618 E.04377
G1 X115.382 Y94.087 E1.47291
G1 X114.519 Y94.087 E.04377
G1 X135.913 Y115.481 E1.53481
G1 X135.913 Y115.913 E.02188
M73 P3 R23
M73 Q3 S23
G1 X135.481 Y115.913 E.02189
G1 X114.087 Y94.519 E1.5348
G1 X114.087 Y95.382 E.04377
G1 X134.618 Y115.913 E1.47291
G1 X133.756 Y115.913 E.04377
G1 X114.087 Y96.244 E1.41101
G1 X114.087 Y97.107 E.04377
G1 X132.893 Y115.913 E1.34911
G1 X132.03 Y115.913 E.04377
G1 X114.087 Y97.97 E1.28722
G1 X114.087 Y98.833 E.04377
G1 X131.167 Y115.913 E1.22532
G1 X130.305 Y115.913 E.04377
G1 X114.087 Y99.695 E1.16343
G1 X114.087 Y100.558 E.04377
G1 X129.442 Y115.913 E1.10153
G1 X128.579 Y115.913 E.04377
G1 X114.087 Y101.421 E1.03963
G1 X114.087 Y102.284 E.04377
G1 X127.716 Y115.913 E.97774
G1 X126.853 Y115.913 E.04377
G1 X114.087 Y103.147 E.91584
G1 X114.087 Y104.009 E.04377
G1 X125.991 Y115.913 E.85394
G1 X125.128 Y115.913 E.04377
M73 P4 R23
M73 Q4 S23
G1 X114.087 Y104.872 E.79205
G1 X114.087 Y105.735 E.04377
G1 X124.265 Y115.913 E.73015
G1 X123.402 Y115.913 E.04377
G1 X114.087 Y106.598 E.66825
G1 X114.087 Y107.461 E.04377
G1 X122.539 Y115.913 E.60636
G1 X121.677 Y115.913 E.04377
G1 X114.087 Y108.323 E.54446
G1 X114.087 Y109.186 E.04377
G1 X120.814 Y115.913 E.48257
G1 X119.951 Y115.913 E.04377
G1 X114.087 Y110.049 E.42067
G1 X114.087 Y110.912 E.04377
G1 X119.088 Y115.913 E.35877
G1 X118.226 Y115.913 E.04377
G1 X114.087 Y111.774 E.29688
G1 X114.087 Y112.637 E.04377
G1 X117.363 Y115.913 E.23498
G1 X116.5 Y115.913 E.04377
G1 X114.087 Y113.5 E.17308
G1 X114.087 Y114.363 E.04377
G1 X115.637 Y115.913 E.11119
G1 X114.774 Y115.913 E.04377
G1 X113.814 Y114.952 E.06889
M204 S1000
; stop printing object Shape-Box id:0 copy 0
M106 S84.15
;LAYER_CHANGE
;Z:0.5
;HEIGHT:0.3
;BEFORE_LAYER_CHANGE
G92 E0.0
;0.5


;WIPE_START
G1 F8640
G1 X114.774 Y115.913 E-.31357
G1 X115.637 Y115.913 E-.19922
G1 X114.88 Y115.156 E-.24721
;WIPE_END
G1 E-.04 F2100
G1 Z.6 F720
;AFTER_LAYER_CHANGE
;0.5
M104 S210 ; set temperature
G1 X114.88 Y120.107 F10800
G1 Z.5 F720
G1 E.8 F1500
;TYPE:Skirt/Brim
;WIDTH:0.65
G1 F3000
G1 X112.5 Y120.107 E.17385
G1 X111.125 Y119.715 E.10447
G1 X110.163 Y118.656 E.10447
G1 X109.893 Y117.5 E.0867
G1 X109.893 Y92.5 E1.82604
G1 X110.285 Y91.125 E.10447
G1 X111.344 Y90.163 E.10447
G1 X112.5 Y89.893 E.0867
G1 X137.5 Y89.893 E1.82604
G1 X138.875 Y90.285 E.10447
G1 X139.837 Y91.344 E.10447
G1 X140.107 Y92.5 E.0867
G1 X140.107 Y117.5 E1.82604
G1 X139.715 Y118.875 E.10447
G1 X138.656 Y119.837 E.10447
G1 X137.5 Y120.107 E.0867
G1 X114.97 Y120.107 E1.64561
; printing object Shape-Box id:0 copy 0
;WIPE_START
G1 F8640
G1 X112.5 Y120.107 E-.57038
G1 X111.71 Y119.882 E-.18962
;WIPE_END
G1 E-.04 F2100
G1 Z.9 F720
G1 X136.589 Y116.589 F10800
G1 Z.5 F720
G1 E.8 F1500
M204 S800
;TYPE:Perimeter
;WIDTH:0.649999
G1 F2700
G1 X113.411 Y116.589 E1.69301
G1 X113.411 Y93.411 E1.69301
G1 X136.589 Y93.411 E1.69301
G1 X136.589 Y116.499 E1.68644
M204 S1000
G1 X137.175 Y117.175 F10800
M204 S800
;TYPE:External perimeter
G1 F2100
G1 X112.825 Y117.175 E1.77856
G1 X112.825 Y92.825 E1.77856
G1 X137.175 Y92.825 E1.77856
G1 X137.175 Y117.085 E1.77199
M204 S1000
M73 Q5 S23
G1 X136.595 Y117.02 F10800
;WIPE_START
M73 P5 R23
G1 F8640
G1 X133.884 Y117.097 E-.76
;WIPE_END
G1 E-.04 F2100
G1 Z.9 F720
G1 X136.414 Y115.224 F10800
G1 Z.5 F720
G1 E.8 F1500
;TYPE:Solid infill
;WIDTH:0.652846
G1 F4200
G1 X135.487 Y116.15 E.09615
G1 X134.655 Y116.15 E.06108
G1 X136.15 Y114.655 E.15518
G1 X136.15 Y113.823 E.06108
G1 X133.823 Y116.15 E.24156
G1 X132.991 Y116.15 E.06108
G1 X136.15 Y112.991 E.32794
G1 X136.15 Y112.159 E.06108
G1 X132.159 Y116.15 E.41433
G1 X131.326 Y116.15 E.06108
G1 X136.15 Y111.326 E.50071
G1 X136.15 Y110.494 E.06108
G1 X130.494 Y116.15 E.58709
G1 X129.662 Y116.15 E.06108
G1 X136.15 Y109.662 E.67347
G1 X136.15 Y108.83 E.06108
G1 X128.83 Y116.15 E.75986
G1 X127.997 Y116.15 E.06108
G1 X136.15 Y107.997 E.84624
G1 X136.15 Y107.165 E.06108
G1 X127.165 Y116.15 E.93262
G1 X126.333 Y116.15 E.06108
G1 X136.15 Y106.333 E1.019
G1 X136.15 Y105.501 E.06108
G1 X125.501 Y116.15 E1.10539
G1 X124.669 Y116.15 E.06108
G1 X136.15 Y104.669 E1.19177
G1 X136.15 Y103.836 E.06108
G1 X123.836 Y116.15 E1.27815
G1 X123.004 Y116.15 E.06108
G1 X136.15 Y103.004 E1.36453
G1 X136.15 Y102.172 E.06108
G1 X122.172 Y116.15 E1.45092
G1 X121.34 Y116.15 E.06108
G1 X136.15 Y101.34 E1.5373
G1 X136.15 Y100.508 E.06108
G1 X120.508 Y116.15 E1.62368
G1 X119.675 Y116.15 E.06108
G1 X136.15 Y99.675 E1.71007
G1 X136.15 Y98.843 E.06108
G1 X118.843 Y116.15 E1.79645
G1 X118.011 Y116.15 E.06108
G1 X136.15 Y98.011 E1.88283
G1 X136.15 Y97.179 E.06108
G1 X117.179 Y116.15 E1.96921
G1 X116.346 Y116.15 E.06108
G1 X136.15 Y96.346 E2.0556
G1 X136.15 Y95.514 E.06108
G1 X115.514 Y116.15 E2.14198
G1 X114.682 Y116.15 E.06108
G1 X136.15 Y94.682 E2.22836
G1 X136.15 Y93.85 E.06108
G1 X113.85 Y116.15 E2.31474
G1 X113.85 Y115.318 E.06108
G1 X135.318 Y93.85 E2.22835
G1 X134.486 Y93.85 E.06108
G1 X113.85 Y114.486 E2.14197
G1 X113.85 Y113.653 E.06108
G1 X133.653 Y93.85 E2.05559
G1 X132.821 Y93.85 E.06108
G1 X113.85 Y112.821 E1.96921
G1 X113.85 Y111.989 E.06108
G1 X131.989 Y93.85 E1.88282
G1 X131.157 Y93.85 E.06108
G1 X113.85 Y111.157 E1.79644
G1 X113.85 Y110.325 E.06108
G1 X130.325 Y93.85 E1.71006
G1 X129.492 Y93.85 E.06108
G1 X113.85 Y109.492 E1.62368
G1 X113.85 Y108.66 E.06108
G1 X128.66 Y93.85 E1.53729
G1 X127.828 Y93.85 E.06108
G1 X113.85 Y107.828 E1.45091
G1 X113.85 Y106.996 E.06108
G1 X126.996 Y93.85 E1.36453
G1 X126.164 Y93.85 E.06108
M73 Q6 S23
G1 X113.85 Y106.164 E1.27815
G1 X113.85 Y105.331 E.06108
M73 P6 R23
G1 X125.331 Y93.85 E1.19176
G1 X124.499 Y93.85 E.06108
G1 X113.85 Y104.499 E1.10538
G1 X113.85 Y103.667 E.06108
G1 X123.667 Y93.85 E1.019
G1 X122.835 Y93.85 E.06108
G1 X113.85 Y102.835 E.93262
G1 X113.85 Y102.002 E.06108
G1 X122.002 Y93.85 E.84623
G1 X121.17 Y93.85 E.06108
G1 X113.85 Y101.17 E.75985
G1 X113.85 Y100.338 E.06108
G1 X120.338 Y93.85 E.67347
G1 X119.506 Y93.85 E.06108
G1 X113.85 Y99.506 E.58708
G1 X113.85 Y98.674 E.06108
G1 X118.674 Y93.85 E.5007
G1 X117.841 Y93.85 E.06108
G1 X113.85 Y97.841 E.41432
G1 X113.85 Y97.009 E.06108
G1 X117.009 Y93.85 E.32794
G1 X116.177 Y93.85 E.06108
G1 X113.85 Y96.177 E.24155
G1 X113.85 Y95.345 E.06108
G1 X115.345 Y93.85 E.15517
G1 X114.513 Y93.85 E.06108
G1 X113.586 Y94.776 E.09614
; stop printing object Shape-Box id:0 copy 0
M106 S170.85
;LAYER_CHANGE
;Z:0.8
;HEIGHT:0.3
;BEFORE_LAYER_CHANGE
M104 S215 ;WOODGRAIN_TEMP
G92 E0.0
;0.8


;WIPE_START
G1 F8640
G1 X114.513 Y93.85 E-.30246
G1 X115.345 Y93.85 E-.19216
G1 X114.532 Y94.663 E-.26538
;WIPE_END
G1 E-.04 F2100
G1 Z.9 F720
;AFTER_LAYER_CHANGE
;0.8
G1 X109.893 Y94.663 F10800
G1 Z.8 F720
G1 E.8 F1500
;TYPE:Skirt/Brim
;WIDTH:0.65
G1 F3000
G1 X109.893 Y92.5 E.15795
G1 X110.285 Y91.125 E.10447
G1 X111.344 Y90.163 E.10447
G1 X112.5 Y89.893 E.0867
G1 X137.5 Y89.893 E1.82604
G1 X138.875 Y90.285 E.10447
G1 X139.837 Y91.344 E.10447
G1 X140.107 Y92.5 E.0867
G1 X140.107 Y117.5 E1.82604
G1 X139.715 Y118.875 E.10447
G1 X138.656 Y119.837 E.10447
G1 X137.5 Y120.107 E.0867
G1 X112.5 Y120.107 E1.82604
G1 X111.125 Y119.715 E.10447
G1 X110.163 Y118.656 E.10447
G1 X109.893 Y117.5 E.0867
G1 X109.893 Y94.753 E1.66151
; printing object Shape-Box id:0 copy 0
;WIPE_START
G1 F8640
G1 X109.893 Y92.5 E-.52011
G1 X110.178 Y91.501 E-.23989
;WIPE_END
G1 E-.04 F2100
G1 Z1.2 F720
G1 X136.589 Y116.589 F10800
G1 Z.8 F720
M73 P6 R22
G1 E.8 F1500
M204 S800
;TYPE:Perimeter
;WIDTH:0.649999
G1 F2700
G1 X113.411 Y116.589 E1.69301
G1 X113.411 Y93.411 E1.69301
G1 X136.589 Y93.411 E1.69301
G1 X136.589 Y116.499 E1.68644
M204 S1000
G1 X137.175 Y117.175 F10800
M204 S800
;TYPE:External perimeter
G1 F2100
G1 X112.825 Y117.175 E1.77856
G1 X112.825 Y92.825 E1.77856
M73 Q6 S22
G1 X137.175 Y92.825 E1.77856
G1 X137.175 Y117.085 E1.77199
M204 S1000
G1 X136.595 Y117.02 F10800
;WIPE_START
G1 F8640
G1 X133.884 Y117.097 E-.76
;WIPE_END
G1 E-.04 F2100
G1 Z1.2 F720
G1 X135.224 Y93.586 F10800
G1 Z.8 F720
G1 E.8 F1500
;TYPE:Solid infill
;WIDTH:0.652846
G1 F4200
G1 X136.15 Y94.513 E.09615
G1 X136.15 Y95.345 E.06108
G1 X134.655 Y93.85 E.15518
G1 X133.823 Y93.85 E.06108
G1 X136.15 Y96.177 E.24156
G1 X136.15 Y97.009 E.06108
G1 X132.991 Y93.85 E.32794
G1 X132.159 Y93.85 E.06108
G1 X136.15 Y97.841 E.41433
G1 X136.15 Y98.674 E.06108
G1 X131.326 Y93.85 E.50071
G1 X130.494 Y93.85 E.06108
G1 X136.15 Y99.506 E.58709
G1 X136.15 Y100.338 E.06108
G1 X129.662 Y93.85 E.67347
G1 X128.83 Y93.85 E.06108
G1 X136.15 Y101.17 E.75986
G1 X136.15 Y102.003 E.06108
G1 X127.997 Y93.85 E.84624
G1 X127.165 Y93.85 E.06108
G1 X136.15 Y102.835 E.93262
G1 X136.15 Y103.667 E.06108
M73 Q7 S22
G1 X126.333 Y93.85 E1.019
G1 X125.501 Y93.85 E.06108
M73 P7 R22
G1 X136.15 Y104.499 E1.10539
G1 X136.15 Y105.331 E.06108
G1 X124.669 Y93.85 E1.19177
G1 X123.836 Y93.85 E.06108
G1 X136.15 Y106.164 E1.27815
G1 X136.15 Y106.996 E.06108
G1 X123.004 Y93.85 E1.36453
G1 X122.172 Y93.85 E.06108
G1 X136.15 Y107.828 E1.45092
G1 X136.15 Y108.66 E.06108
G1 X121.34 Y93.85 E1.5373
G1 X120.508 Y93.85 E.06108
G1 X136.15 Y109.492 E1.62368
G1 X136.15 Y110.325 E.06108
G1 X119.675 Y93.85 E1.71007
G1 X118.843 Y93.85 E.06108
G1 X136.15 Y111.157 E1.79645
G1 X136.15 Y111.989 E.06108
G1 X118.011 Y93.85 E1.88283
G1 X117.179 Y93.85 E.06108
G1 X136.15 Y112.821 E1.96921
G1 X136.15 Y113.654 E.06108
G1 X116.346 Y93.85 E2.0556
G1 X115.514 Y93.85 E.06108
G1 X136.15 Y114.486 E2.14198
G1 X136.15 Y115.318 E.06108
G1 X114.682 Y93.85 E2.22836
G1 X113.85 Y93.85 E.06108
G1 X136.15 Y116.15 E2.31474
G1 X135.318 Y116.15 E.06108
G1 X113.85 Y94.682 E2.22835
G1 X113.85 Y95.514 E.06108
G1 X134.486 Y116.15 E2.14197
G1 X133.653 Y116.15 E.06108
G1 X113.85 Y96.347 E2.05559
G1 X113.85 Y97.179 E.06108
G1 X132.821 Y116.15 E1.96921
G1 X131.989 Y116.15 E.06108
G1 X113.85 Y98.011 E1.88282
G1 X113.85 Y98.843 E.06108
G1 X131.157 Y116.15 E1.79644
G1 X130.325 Y116.15 E.06108
G1 X113.85 Y99.675 E1.71006
G1 X113.85 Y100.508 E.06108
G1 X129.492 Y116.15 E1.62368
G1 X128.66 Y116.15 E.06108
G1 X113.85 Y101.34 E1.53729
G1 X113.85 Y102.172 E.06108
G1 X127.828 Y116.15 E1.45091
G1 X126.996 Y116.15 E.06108
G1 X113.85 Y103.004 E1.36453
G1 X113.85 Y103.836 E.06108
G1 X126.164 Y116.15 E1.27815
G1 X125.331 Y116.15 E.06108
G1 X113.85 Y104.669 E1.19176
G1 X113.85 Y105.501 E.06108
G1 X124.499 Y116.15 E1.10538
G1 X123.667 Y116.15 E.06108
G1 X113.85 Y106.333 E1.019
G1 X113.85 Y107.165 E.06108
G1 X122.835 Y116.15 E.93262
G1 X122.002 Y116.15 E.06108
G1 X113.85 Y107.998 E.84623
G1 X113.85 Y108.83 E.06108
G1 X121.17 Y116.15 E.75985
G1 X120.338 Y116.15 E.06108
G1 X113.85 Y109.662 E.67347
G1 X113.85 Y110.494 E.06108
G1 X119.506 Y116.15 E.58708
G1 X118.674 Y116.15 E.06108
G1 X113.85 Y111.326 E.5007
G1 X113.85 Y112.159 E.06108
G1 X117.841 Y116.15 E.41432
G1 X117.009 Y116.15 E.06108
G1 X113.85 Y112.991 E.32794
G1 X113.85 Y113.823 E.06108
G1 X116.177 Y116.15 E.24155
M73 Q8 S22
G1 X115.345 Y116.15 E.06108
G1 X113.85 Y114.655 E.15517
G1 X113.85 Y115.487 E.06108
G1 X114.776 Y116.414 E.09614
; stop printing object Shape-Box id:0 copy 0
M106 S255
;LAYER_CHANGE
;Z:1.1
;HEIGHT:0.3
;BEFORE_LAYER_CHANGE
G92 E0.0
;1.1


;WIPE_START
M73 P8 R22
G1 F8640
G1 X113.85 Y115.487 E-.30246
G1 X113.85 Y114.655 E-.19216
G1 X114.663 Y115.468 E-.26538
;WIPE_END
G1 E-.04 F2100
G1 Z1.2 F720
;AFTER_LAYER_CHANGE
;1.1
; printing object Shape-Box id:0 copy 0
G1 X136.589 Y116.589 F10800
G1 Z1.1 F720
G1 E.8 F1500
M204 S800
;TYPE:Perimeter
;WIDTH:0.649999
G1 F2700
G1 X113.411 Y116.589 E1.69301
G1 X113.411 Y93.411 E1.69301
G1 X136.589 Y93.411 E1.69301
G1 X136.589 Y116.499 E1.68644
M204 S1000
G1 X137.175 Y117.175 F10800
M204 S800
;TYPE:External perimeter
G1 F2100
G1 X112.825 Y117.175 E1.77856
G1 X112.825 Y92.825 E1.77856
G1 X137.175 Y92.825 E1.77856
G1 X137.175 Y117.085 E1.77199
M204 S1000
G1 X136.595 Y117.02 F10800
;WIPE_START
